symbolic/64x64/mimetypes/application-gvdesign.svg

<svg xmlns="http://www.w3.org/2000/svg" width="64" height="64" version="1">
 <path style="opacity:0.2" d="M 12.8125,5 C 11.254375,5 10,6.2488 10,7.8 v 50.4 c 0,1.5512 1.254375,2.8 2.8125,2.8 h 39.375 C 53.745625,61 55,59.7512 55,58.2 V 21.8 L 39.53125,20.4 38.125,5 Z"/>
 <path style="fill:#c63166" d="M 28.163147,4 C 25.857512,6.1522078 16.074977,16.029937 10,22.224609 v 1.211328 c 0.972518,-0.875122 2.389112,-2.134065 2.881164,-2.542969 0.289453,-0.240541 1.414189,-1.225338 2.49939,-2.1875 1.085202,-0.962159 2.488035,-2.19252 3.117371,-2.734375 0.629336,-0.541853 1.934536,-1.723603 2.900391,-2.625 1.862917,-1.738592 7.617029,-6.8189627 8.256224,-7.289843 0.208814,-0.153827 0.402949,-0.2578499 0.431214,-0.2296875 0.06248,0.062236 -0.300075,0.6677608 -1.579285,2.6332032 -0.536762,0.8247093 -2.6325,4.0589133 -4.658203,7.1859373 -2.025706,3.127023 -4.539673,7.006428 -5.586547,8.621484 -1.046873,1.615057 -3.360529,5.186126 -5.141602,7.935156 C 12.043979,33.86333 11.07365,35.358964 10,37.014843 V 57.2 c 0,1.5512 1.254375,2.8 2.8125,2.8 H 31.357422 C 34.007067,49.974565 36.747537,33.783015 41.269836,19.558593 L 39.53125,19.4 38,4 Z"/>
 <path style="fill:#b8da6c" d="M 12.8125,4 C 11.254375,4 10,5.2488 10,6.8 V 22.221875 C 16.072899,16.030035 25.858962,6.1501812 28.163147,4 Z m 17.273254,1.8265625 c -0.02827,-0.028162 -0.2224,0.07586 -0.431214,0.2296875 -0.639197,0.4708803 -6.393307,5.551252 -8.256224,7.289843 -0.965855,0.901397 -2.271055,2.083147 -2.900391,2.625 -0.629336,0.541855 -2.032169,1.772216 -3.117371,2.734375 -1.085201,0.962162 -2.209937,1.946959 -2.49939,2.1875 C 12.389112,21.301872 10.972518,22.560815 10,23.435937 v 13.578906 c 1.07365,-1.655879 2.043979,-3.151513 3.120117,-4.8125 1.781073,-2.74903 4.094729,-6.320098 5.141602,-7.935156 1.046874,-1.615056 3.560841,-5.494461 5.586547,-8.621484 2.025703,-3.127024 4.121441,-6.361228 4.658203,-7.1859373 1.27921,-1.9654424 1.641765,-2.5709676 1.579285,-2.6332032 z"/>
 <path style="fill:#778b3c" d="M 55,40.419141 35.65857,60 H 52.1875 C 53.745625,60 55,58.7512 55,57.2 Z"/>
 <path style="fill:#eddf36" d="m 39.53125,19.389063 c -4.887172,12.79643 -8.192388,26.127003 -8.797302,36.848437 -0.07367,1.30579 -0.1728,2.909995 -0.219726,3.562891 L 30.500488,60 H 35.65857 L 55,40.419141 V 21 L 39.53125,19.4 Z"/>
 <path style="opacity:0.1" d="M 38,5 V 19.166667 C 38,20.731517 39.268525,22 40.833333,22 H 55 Z"/>
 <path style="fill:#faf5bc" d="M 38,4 V 18.166667 C 38,19.731517 39.268525,21 40.833333,21 H 55 Z"/>
 <path style="opacity:0.2;fill:#ffffff" d="M 12.8125,4 C 11.254375,4 10,5.2495813 10,6.8007812 v 1 C 10,6.2495812 11.254375,5 12.8125,5 H 38 V 4 Z"/>
 <path style="opacity:0.2" d="M 27.138672 5 C 23.926061 8.109657 15.546345 16.567683 10 22.222656 L 10 23.222656 C 16.072899 17.030816 25.859877 7.1501812 28.164062 5 L 27.138672 5 z M 30.085938 6.8261719 C 30.057668 6.7980099 29.863111 6.9028129 29.654297 7.0566406 C 29.604928 7.0930095 29.194131 7.4591835 29.087891 7.546875 C 28.887306 7.8605351 28.793469 8.017087 28.505859 8.4589844 C 27.969097 9.283694 25.873359 12.51946 23.847656 15.646484 C 21.82195 18.773507 19.308593 22.652522 18.261719 24.267578 C 17.214846 25.882636 14.900214 29.454095 13.119141 32.203125 C 12.043003 33.864112 11.07365 35.359746 10 37.015625 L 10 38.015625 C 11.07365 36.359746 12.043003 34.864112 13.119141 33.203125 C 14.900214 30.454095 17.214846 26.882636 18.261719 25.267578 C 19.308593 23.652522 21.82195 19.773507 23.847656 16.646484 C 25.873359 13.51946 27.969097 10.283694 28.505859 9.4589844 C 29.785069 7.493542 30.148417 6.8884075 30.085938 6.8261719 z M 55 40.419922 L 35.658203 60 L 30.5625 60 C 30.547483 60.228649 30.524219 60.654032 30.513672 60.800781 L 30.5 61 L 35.658203 61 L 55 41.419922 L 55 40.419922 z"/>
</svg>

<svg xmlns="http://www.w3.org/2000/svg" width="64" height="64" version="1"><path style="opacity:.2" d="M12.813 5A2.8 2.8 0 0 0 10 7.8v50.4a2.8 2.8 0 0 0 2.813 2.8h39.374A2.8 2.8 0 0 0 55 58.2V21.8l-15.469-1.4L38.125 5z"/><path style="fill:#c63166" d="M28.163 4C25.858 6.152 16.075 16.03 10 22.225v1.21c.973-.874 2.39-2.133 2.881-2.542.29-.24 1.414-1.225 2.5-2.188a368.22 368.22 0 0 1 3.117-2.734 124.04 124.04 0 0 0 2.9-2.625c1.863-1.738 7.617-6.819 8.257-7.29.208-.154.402-.258.43-.23.063.063-.3.668-1.579 2.634-.536.824-2.632 4.059-4.658 7.186l-5.586 8.621-5.142 7.935L10 37.015V57.2a2.8 2.8 0 0 0 2.813 2.8h18.544c2.65-10.025 5.39-26.217 9.913-40.441L39.53 19.4 38 4z"/><path style="fill:#b8da6c" d="M12.813 4A2.8 2.8 0 0 0 10 6.8v15.422C16.073 16.03 25.859 6.15 28.163 4zm17.273 1.827c-.029-.029-.223.075-.431.23-.64.47-6.394 5.55-8.257 7.29a124.04 124.04 0 0 1-2.9 2.624 368.22 368.22 0 0 0-3.117 2.734c-1.086.963-2.21 1.947-2.5 2.188-.492.409-1.908 1.668-2.881 2.543v13.579l3.12-4.813 5.142-7.935 5.586-8.621c2.026-3.127 4.122-6.362 4.658-7.186 1.28-1.966 1.642-2.571 1.58-2.633z"/><path style="fill:#778b3c" d="M55 40.42 35.659 60h16.529A2.8 2.8 0 0 0 55 57.2z"/><path style="fill:#eddf36" d="M39.531 19.39c-4.887 12.795-8.192 26.126-8.797 36.847-.074 1.306-.173 2.91-.22 3.563l-.014.2h5.159L55 40.42V21l-15.469-1.6z"/><path style="opacity:.1" d="M38 5v14.167A2.833 2.833 0 0 0 40.833 22H55z"/><path style="fill:#faf5bc" d="M38 4v14.167A2.833 2.833 0 0 0 40.833 21H55z"/><path style="opacity:.2;fill:#fff" d="M12.813 4A2.8 2.8 0 0 0 10 6.8v1A2.8 2.8 0 0 1 12.813 5H38V4z"/><path style="opacity:.2" d="M27.139 5C23.926 8.11 15.546 16.568 10 22.223v1C16.073 17.03 25.86 7.15 28.164 5H27.14zm2.947 1.826c-.028-.028-.223.077-.432.23-.05.037-.46.403-.566.49-.2.315-.295.471-.582.913-.537.825-2.633 4.06-4.658 7.187A49665.228 49665.228 0 0 1 10 37.016v1l3.12-4.813a49665.228 49665.228 0 0 0 10.729-16.557c2.024-3.127 4.12-6.362 4.657-7.187 1.28-1.965 1.642-2.57 1.58-2.633zM55 40.42 35.658 60h-5.096c-.015.229-.038.654-.048.8l-.014.2h5.158L55 41.42v-1z"/></svg>
